assets/symbols/mulberry/skirt.svg

<svg height="850.394" viewBox="0 0 850.394 850.394" width="850.394" xmlns="http://www.w3.org/2000/svg"><path d="m110.724 753.938h634.118" fill="none"/><g fill="#060606"><circle cx="127.08" cy="753.938" r="15.297"/><circle cx="158.733" cy="753.938" r="15.297"/><circle cx="190.386" cy="753.938" r="15.297"/><circle cx="222.039" cy="753.938" r="15.297"/><circle cx="253.692" cy="753.938" r="15.297"/><circle cx="285.345" cy="753.938" r="15.297"/><circle cx="316.998" cy="753.938" r="15.297"/><circle cx="348.651" cy="753.938" r="15.297"/><circle cx="380.304" cy="753.938" r="15.297"/><circle cx="411.957" cy="753.938" r="15.297"/><circle cx="443.609" cy="753.938" r="15.297"/><circle cx="475.263" cy="753.938" r="15.297"/><circle cx="506.916" cy="753.938" r="15.297"/><circle cx="538.568" cy="753.938" r="15.297"/><circle cx="570.222" cy="753.938" r="15.297"/><circle cx="601.875" cy="753.938" r="15.297"/><circle cx="633.527" cy="753.938" r="15.297"/><circle cx="665.181" cy="753.938" r="15.297"/><circle cx="696.834" cy="753.938" r="15.297"/><circle cx="728.486" cy="753.938" r="15.297"/></g><path d="m604.7 90.68v58.96h-352.86v-58.96z" fill="#0b00ea"/><path d="m604.7 149.64 124.79 595.07h-304.32v.08h-298.66l124.79-595.06h287.77l15.28-.09z" fill="#a3d9ff"/><g fill="none" stroke="#000" stroke-width="21.406"><path d="m604.7 149.64 124.79 595.07h-304.32"/><path d="m430.83 744.79h-304.32l124.79-595.06h287.77l15.28-.09m50.35 0h-352.86v-58.96h352.86z"/></g><path d="m0 0h850.394v850.394h-850.394z" fill="none"/></svg>

<svg xmlns="http://www.w3.org/2000/svg" width="850.394" height="850.394" viewBox="0 0 850.394 850.394" overflow="visible"><path fill="none" d="M110.724 753.938h634.118"/><circle cx="127.08" cy="753.938" r="15.297" fill="#060606"/><circle cx="158.733" cy="753.938" r="15.297" fill="#060606"/><circle cx="190.386" cy="753.938" r="15.297" fill="#060606"/><circle cx="222.039" cy="753.938" r="15.297" fill="#060606"/><circle cx="253.692" cy="753.938" r="15.297" fill="#060606"/><circle cx="285.345" cy="753.938" r="15.297" fill="#060606"/><circle cx="316.998" cy="753.938" r="15.297" fill="#060606"/><circle cx="348.651" cy="753.938" r="15.297" fill="#060606"/><circle cx="380.304" cy="753.938" r="15.297" fill="#060606"/><circle cx="411.957" cy="753.938" r="15.297" fill="#060606"/><circle cx="443.609" cy="753.938" r="15.297" fill="#060606"/><circle cx="475.263" cy="753.938" r="15.297" fill="#060606"/><circle cx="506.916" cy="753.938" r="15.297" fill="#060606"/><circle cx="538.568" cy="753.938" r="15.297" fill="#060606"/><circle cx="570.222" cy="753.938" r="15.297" fill="#060606"/><circle cx="601.875" cy="753.938" r="15.297" fill="#060606"/><circle cx="633.527" cy="753.938" r="15.297" fill="#060606"/><circle cx="665.181" cy="753.938" r="15.297" fill="#060606"/><circle cx="696.834" cy="753.938" r="15.297" fill="#060606"/><circle cx="728.486" cy="753.938" r="15.297" fill="#060606"/><g><path fill="#0b00ea" d="M604.7 90.68v58.96H251.84V90.68z"/><path fill="#a3d9ff" d="M604.7 149.64l124.79 595.07H425.17v.08H126.51L251.3 149.73h287.77l15.28-.09z"/><g fill="none" stroke="#000" stroke-width="21.406"><path d="M604.7 149.64l124.79 595.07H425.17"/><path d="M430.83 744.79H126.51L251.3 149.73h287.77l15.28-.09M604.7 149.64H251.84V90.68H604.7z"/></g></g><path fill="none" d="M0 0h850.394v850.394H0z"/></svg>
